Numix/22x22/categories/applications-geology.svg

<?xml version="1.0" encoding="UTF-8" standalone="no"?>
<svg
   xmlns:dc="http://purl.org/dc/elements/1.1/"
   xmlns:cc="http://creativecommons.org/ns#"
   xmlns:rdf="http://www.w3.org/1999/02/22-rdf-syntax-ns#"
   xmlns:svg="http://www.w3.org/2000/svg"
   xmlns="http://www.w3.org/2000/svg"
   xmlns:sodipodi="http://sodipodi.sourceforge.net/DTD/sodipodi-0.dtd"
   xmlns:inkscape="http://www.inkscape.org/namespaces/inkscape"
   width="22"
   height="22"
   viewBox="0 0 22 22"
   id="svg2"
   version="1.1"
   inkscape:version="0.91 r"
   sodipodi:docname="applications-geology.svg">
  <metadata
     id="metadata22">
    <rdf:RDF>
      <cc:Work
         rdf:about="">
        <dc:format>image/svg+xml</dc:format>
        <dc:type
           rdf:resource="http://purl.org/dc/dcmitype/StillImage" />
        <dc:title></dc:title>
      </cc:Work>
    </rdf:RDF>
  </metadata>
  <defs
     id="defs20" />
  <sodipodi:namedview
     pagecolor="#ffffff"
     bordercolor="#666666"
     borderopacity="1"
     objecttolerance="10"
     gridtolerance="10"
     guidetolerance="10"
     inkscape:pageopacity="0"
     inkscape:pageshadow="2"
     inkscape:window-width="1920"
     inkscape:window-height="1056"
     id="namedview18"
     showgrid="true"
     inkscape:zoom="20.85965"
     inkscape:cx="16.527492"
     inkscape:cy="16.256541"
     inkscape:window-x="0"
     inkscape:window-y="24"
     inkscape:window-maximized="1"
     inkscape:current-layer="svg2">
    <inkscape:grid
       type="xygrid"
       id="grid4150" />
  </sodipodi:namedview>
  <g
     id="g6"
     style="fill:#a47854;fill-rule:evenodd;stroke:#a47854;stroke-width:1.65992212;stroke-linejoin:round"
     transform="matrix(0.63460343,0,0,0.63138643,0.96227065,0.99459378)">
    <path
       inkscape:connector-curvature="0"
       id="path8"
       transform="scale(0.1237,0.1237)"
       d="m 30.725798,148.1975 c 38.27304,-0.53683 53.778042,-5.24201 65.525213,-8.87353 11.778749,-3.6631 29.210039,-11.49454 29.210039,-11.49454 l 44.02031,89.84059 -138.755562,0 z"
       style="stroke-width:8.99345875" />
    <path
       inkscape:connector-curvature="0"
       id="path10"
       transform="scale(0.1237,0.1237)"
       d="m 157.29209,182.08114 c 0,0 -19.76809,10.95771 -25.45221,13.73661 -7.86302,3.82099 -21.41016,14.11556 -45.157129,21.47333 l -55.641169,0 0,-43.894 c 32.146827,-1.01051 55.293806,-1.98944 69.693568,-8.02092 14.36817,-6.03148 41.46245,-20.08387 41.46245,-20.08387 z"
       style="stroke-width:10.16370296" />
    <path
       inkscape:connector-curvature="0"
       id="path12"
       transform="scale(0.1237,0.1237)"
       d="m 132.53461,142.1976 c 20.84175,-20.90491 14.7787,-27.15743 35.93624,-28.98898 21.15753,-1.79997 56.80957,14.08397 56.80957,14.08397 l 0,90.31427 -55.79906,0 z"
       style="stroke-width:8.99345875" />
    <path
       inkscape:connector-curvature="0"
       id="path14"
       transform="scale(0.1237,0.1237)"
       d="m 224.61727,184.10216 c 0,0 -4.98939,-2.62101 -11.46297,-5.36833 -6.37884,-2.65259 -11.49454,-3.97888 -23.08382,-0.66315 -7.83144,2.24207 -14.36818,7.23146 -27.72585,17.2734 l -17.1155,-43.04138 c 13.29452,-11.96822 23.77855,-20.39966 37.13622,-21.41017 13.38925,-1.01051 24.41011,1.35787 31.13632,4.67361 6.69462,3.34731 10.45245,5.68411 10.45245,5.68411 z"
       style="stroke-width:10.16370296" />
  </g>
  <path
     inkscape:connector-curvature="0"
     id="path16"
     d="m 3.6850636,3.4999995 14.6298724,0 c 0.101169,0 0.185064,0.083895 0.185064,0.1850634 l 0,14.6298731 C 18.5,18.416104 18.41611,18.5 18.314936,18.5 l -14.6298724,0 c -0.101168,0 -0.1850635,-0.08389 -0.1850635,-0.185064 l 0,-14.6298731 c 0,-0.101168 0.083895,-0.1850634 0.1850635,-0.1850634 z"
     style="fill:none;stroke:#a47854;stroke-width:0.99999994;stroke-linecap:round;stroke-miterlimit:4;stroke-dasharray:none" />
</svg>

<svg width="22" xmlns="http://www.w3.org/2000/svg" height="22" viewBox="0 0 22 22" xmlns:xlink="http://www.w3.org/1999/xlink">
<g style="stroke:#a47854">
<g style="fill:#a47854;fill-rule:evenodd;stroke-linejoin:round">
<path style="stroke-width:5.418" d="M 30.728669 148.177409 C 68.990226 147.672154 84.515323 142.941133 96.273977 139.312486 C 108.03263 135.637907 125.486882 127.829426 125.486882 127.829426 L 169.489968 217.672889 L 30.728669 217.672889 Z " transform="scale(.08504)"/>
<path style="stroke-width:6.123" d="M 157.271992 182.075402 C 157.271992 182.075402 137.521129 193.053208 131.825531 195.809142 C 123.971118 199.621518 110.421107 209.91034 86.674138 217.305431 L 31.050195 217.305431 L 31.050195 173.394209 C 63.202763 172.3837 86.352613 171.37319 100.729404 165.356067 C 115.106195 159.338943 142.206217 145.283678 142.206217 145.283678 Z " transform="scale(.08504)"/>
<path style="stroke-width:5.418" d="M 132.514515 142.206217 C 153.367752 121.307048 147.304696 115.014331 168.479459 113.222973 C 189.654222 111.385684 225.297641 127.278239 225.297641 127.278239 L 225.297641 217.626957 L 169.489968 217.626957 Z " transform="scale(.08504)"/>
<path style="stroke-width:6.123" d="M 224.608657 184.096421 C 224.608657 184.096421 219.647975 181.478283 213.171529 178.722349 C 206.786948 176.058279 201.642537 174.772176 190.067612 178.079297 C 182.259131 180.329977 175.690821 185.290659 162.324539 195.34982 L 145.237745 152.31131 C 158.512163 140.322996 168.984714 131.917395 182.350996 130.906886 C 195.76321 129.896377 206.786948 132.238921 213.493055 135.591975 C 220.199162 138.899096 223.965606 141.24164 223.965606 141.24164 Z " transform="scale(.08504)"/>
</g>
<path style="fill:none;stroke-linecap:round;stroke-width:8.073" d="M 34.403248 32.014772 L 221.623062 32.014772 C 222.909164 32.014772 223.965606 33.071213 223.965606 34.403248 L 223.965606 221.623062 C 223.965606 222.909164 222.909164 223.965606 221.623062 223.965606 L 34.403248 223.965606 C 33.071213 223.965606 32.014772 222.909164 32.014772 221.623062 L 32.014772 34.403248 C 32.014772 33.071213 33.071213 32.014772 34.403248 32.014772 Z " transform="scale(.08504)"/>
</g>
</svg>
